X:29
T:Star of Munster, The
M:C|
R:reel
E:6
K:ADor
ed|c2 Ac BAGB|AGEF GEDG|EAAG ABcd| eaaf gedB|c2 Ac BAGB|AGEF GEDG|EAAG ABcd|ecdB A2:|
Bd|:eaab ageg|agbg agef|~g3a gfef|(3gfe af gfed|eaab ageg|agbg agef|~g3e ~a3 g|~b3 a gfed:|
<end>
<start>
